SVG_Azure_All/Azure Firewall Security Partner Provider.svg

<?xml version="1.0" encoding="UTF-8" standalone="no"?>
<!-- Generated by Microsoft Visio, SVG Export Azure Firewall Security Partner Provider.svg Page-1 -->

<svg
   xmlns:dc="http://purl.org/dc/elements/1.1/"
   xmlns:cc="http://creativecommons.org/ns#"
   xmlns:rdf="http://www.w3.org/1999/02/22-rdf-syntax-ns#"
   xmlns:svg="http://www.w3.org/2000/svg"
   xmlns="http://www.w3.org/2000/svg"
   xmlns:sodipodi="http://sodipodi.sourceforge.net/DTD/sodipodi-0.dtd"
   xmlns:inkscape="http://www.inkscape.org/namespaces/inkscape"
   width="0.78740108in"
   height="0.66927409in"
   viewBox="0 0 56.692658 48.187753"
   xml:space="preserve"
   class="st9"
   version="1.1"
   id="svg88"
   sodipodi:docname="Azure Firewall Security Partner Provider.svg"
   style="font-size:12px;overflow:visible;color-interpolation-filters:sRGB;fill:none;fill-rule:evenodd;stroke-linecap:square;stroke-miterlimit:3"
   inkscape:version="0.92.5 (2060ec1f9f, 2020-04-08)"><metadata
   id="metadata92"><rdf:RDF><cc:Work
       rdf:about=""><dc:format>image/svg+xml</dc:format><dc:type
         rdf:resource="http://purl.org/dc/dcmitype/StillImage" /></cc:Work></rdf:RDF></metadata><sodipodi:namedview
   pagecolor="#ffffff"
   bordercolor="#666666"
   borderopacity="1"
   objecttolerance="10"
   gridtolerance="10"
   guidetolerance="10"
   inkscape:pageopacity="0"
   inkscape:pageshadow="2"
   inkscape:window-width="640"
   inkscape:window-height="480"
   id="namedview90"
   showgrid="false"
   inkscape:zoom="1.6400588"
   inkscape:cx="34.874785"
   inkscape:cy="26.591193"
   inkscape:window-x="0"
   inkscape:window-y="0"
   inkscape:window-maximized="0"
   inkscape:current-layer="svg88" />
	<style
   type="text/css"
   id="style2">
	<![CDATA[
		.st1 {fill:#e62323;stroke:none;stroke-linecap:butt;stroke-width:25.7179}
		.st2 {fill:#ff7381;stroke:none;stroke-linecap:butt;stroke-width:25.7179}
		.st3 {fill:#e62323;stroke:none;stroke-linecap:butt;stroke-width:27.6595}
		.st4 {fill:#821010;stroke:none;stroke-linecap:butt;stroke-width:25.7179}
		.st5 {fill:#e5e5e4;stroke:none;stroke-linecap:butt;stroke-width:17.3868}
		.st6 {fill:url(#grad0-24);stroke:none;stroke-linecap:butt;stroke-width:16.8856}
		.st7 {fill:#e62323;stroke:none;stroke-linecap:butt;stroke-width:16.8856}
		.st8 {fill:#ffffff;stroke:none;stroke-linecap:butt;stroke-width:16.8856}
		.st9 {fill:none;fill-rule:evenodd;font-size:12px;overflow:visible;stroke-linecap:square;stroke-miterlimit:3}
	]]>
	</style>

	<defs
   id="Patterns_And_Gradients">
		<linearGradient
   id="grad0-24"
   x1="-0.003136911"
   y1="102.56655"
   x2="24.165416"
   y2="102.56655"
   gradientTransform="scale(1.1743365,0.85154468)"
   gradientUnits="userSpaceOnUse">
			<stop
   offset="0"
   stop-color="#b3b2b3"
   stop-opacity="1"
   id="stop4" />
			<stop
   offset="0.38"
   stop-color="#b6b5b5"
   stop-opacity="1"
   id="stop6" />
			<stop
   offset="0.61"
   stop-color="#bebdbe"
   stop-opacity="1"
   id="stop8" />
			<stop
   offset="0.8"
   stop-color="#cccbcb"
   stop-opacity="1"
   id="stop10" />
			<stop
   offset="0.96"
   stop-color="#e0e0df"
   stop-opacity="1"
   id="stop12" />
			<stop
   offset="1"
   stop-color="#e5e5e4"
   stop-opacity="1"
   id="stop14" />
		</linearGradient>
	</defs>
	<g
   id="g86"
   transform="translate(-25.718123,-25.717149)">
		<title
   id="title18">Page-1</title>
		<g
   id="group8091-1"
   transform="translate(25.7179,-34.0157)">
			<title
   id="title20">Azure Firewall Security Partner Provider</title>
			<g
   id="group8092-2">
				<title
   id="title22">layer1</title>
				<g
   id="shape8093-3"
   transform="translate(3.03056,-39.0675)">
					<title
   id="title24">path10-7</title>
					<path
   d="M 14.2,101.54 H 0.06 l -0.06,6.34 14.43,0.04 -0.23,-6.39 z"
   class="st1"
   id="path26"
   inkscape:connector-curvature="0"
   style="fill:#e62323;stroke:none;stroke-width:25.71789932;stroke-linecap:butt" />
				</g>
				<g
   id="shape8094-5"
   transform="translate(19.1617,-38.8158)">
					<title
   id="title29">path12-3</title>
					<path
   d="M 14.33,101.29 H 0.19 l -0.19,6.3 14.52,0.33 -0.19,-6.64 z"
   class="st2"
   id="path31"
   inkscape:connector-curvature="0"
   style="fill:#ff7381;stroke:none;stroke-width:25.71789932;stroke-linecap:butt" />
				</g>
				<g
   id="shape8095-7"
   transform="translate(3.08623,-31.4887)">
					<title
   id="title34">path14-3</title>
					<path
   d="M 46.67,93.96 H 32.53 l -0.04,6.73 14.99,-0.11 -0.62,-6.62 z M 5.89,101.97 H 0 v 5.95 h 5.89 z"
   class="st1"
   id="path36"
   inkscape:connector-curvature="0"
   style="fill:#e62323;stroke:none;stroke-width:25.71789932;stroke-linecap:butt" />
				</g>
				<g
   id="shape8096-9"
   transform="translate(11.0981,-31.4887)">
					<title
   id="title39">path16-9</title>
					<path
   d="m 38.66,101.97 h -5.89 v 5.95 h 5.89 z m -24.52,0 H 0 v 5.95 h 14.14 z"
   class="st2"
   id="path41"
   inkscape:connector-curvature="0"
   style="fill:#ff7381;stroke:none;stroke-width:25.71789932;stroke-linecap:butt" />
				</g>
				<g
   id="shape8097-11"
   transform="translate(2.83628,-23.2088)">
					<title
   id="title44">path18-1</title>
					<path
   d="M 38.67,93.69 H 24.53 v 5.95 l 15.65,0.14 -0.65,-6.11 z m -24.3,7.64 -14.16,0.02 -0.21,6.57 14.47,-0.04 0.36,-6.55 z"
   class="st1"
   id="path46"
   inkscape:connector-curvature="0"
   style="fill:#e62323;stroke:none;stroke-width:25.71789932;stroke-linecap:butt" />
				</g>
				<g
   id="shape8098-13"
   transform="translate(19.0694,-23.1112)">
					<title
   id="title49">path20-0</title>
					<path
   d="M 14.42,101.5 0.13,101.27 0,107.87 14.66,107.92 Z"
   class="st2"
   id="path51"
   inkscape:connector-curvature="0"
   style="fill:#ff7381;stroke:none;stroke-width:25.71789932;stroke-linecap:butt" />
				</g>
				<g
   id="shape8099-15"
   transform="translate(35.2115,-23.2082)">
					<title
   id="title54">path22-5</title>
					<rect
   x="0"
   y="101.346"
   width="14.8123"
   height="6.57722"
   class="st3"
   id="rect56"
   style="fill:#e62323;stroke:none;stroke-width:27.65950012;stroke-linecap:butt" />
				</g>
				<g
   id="shape8100-17"
   transform="translate(0,-20.6465)">
					<title
   id="title59">path8-5</title>
					<path
   d="m 50.28,107.92 a 1.98255,2.0061 -180 0 0 2.03,-1.95 V 82.34 A 1.98255,2.0061 -180 0 0 50.28,80.38 H 2.03 A 1.97999,2.00351 -180 0 0 0,82.34 v 23.63 a 1.97999,2.00351 -180 0 0 2.03,1.95 z M 49.76,97.08 h -5.89 v -5.96 h 5.89 z M 35.81,83.11 h 14.14 v 6.16 H 35.81 Z m 5.88,8.01 v 5.96 H 27.36 V 91.12 Z M 19.35,83.11 h 14.14 v 6.16 H 19.35 Z m 5.89,8.01 v 5.96 H 11.1 V 91.12 Z M 3.09,83.11 h 14.14 v 6.16 H 3.09 Z m 0,8.01 h 5.84 v 5.96 H 3.09 Z m 14.14,14.02 H 3.09 v -6.11 h 14.14 z m 16.26,0 H 19.35 v -6.11 h 14.14 z m 2.12,0 v -6.11 h 14.15 v 6.01 z"
   class="st4"
   id="path61"
   inkscape:connector-curvature="0"
   style="fill:#821010;stroke:none;stroke-width:25.71789932;stroke-linecap:butt" />
				</g>
				<g
   id="shape8101-19"
   transform="translate(28.5125,-0.305425)">
					<title
   id="title64">path1202-0</title>
					<ellipse
   cx="14.0902"
   cy="93.665604"
   rx="14.0902"
   ry="14.2576"
   class="st5"
   id="ellipse66"
   style="fill:#e5e5e4;stroke:none;stroke-width:17.38680077;stroke-linecap:butt" />
				</g>
				<g
   id="shape8102-21"
   transform="translate(28.3033)">
					<title
   id="title69">path20-06-7</title>
					<path
   d="m 28.35,91.86 h -8.24 a 0.317032,0.320798 -180 0 0 -0.318706,0.320797 L 19.79,96 a 0.380774,0.385297 0 0 1 -0.60052,0.254602 L 12.86,89.84 a 0.318709,0.322496 0 0 1 0,-0.448099 L 14.89,87.34 H 1.55 a 13.624,13.7858 -180 0 0 -1.53,6.41 12.2368,12.3821 -180 0 0 0,1.54 H 8.39 A 0.317032,0.320798 -180 0 0 8.707036,94.936948 L 8.71,91.03 A 0.348903,0.353048 0 0 1 9.31219,90.805952 L 15.64,97.21 a 0.348903,0.353048 0 0 1 0,0.482041 L 9.31,104.11 A 0.379097,0.3836 0 0 1 8.706132,103.852 L 8.7,100.23 A 0.315355,0.319101 -180 0 0 8.384642,99.876948 L 1.45,99.88 a 14.0685,14.2356 -180 0 0 12.67,8.04 14.1004,14.2679 -180 0 0 14.23,-14.26 13.9762,14.1423 -180 0 0 0,-1.8 z"
   class="st6"
   id="path71"
   inkscape:connector-curvature="0"
   style="fill:url(#grad0-24);stroke:none;stroke-width:16.88559914;stroke-linecap:butt" />
				</g>
				<g
   id="shape8103-25"
   transform="translate(41.0045,-11.4988)">
					<title
   id="title74">path40-7-8</title>
					<path
   d="M 8.55,98.65 H 7.41 A 0.286839,0.290246 0 0 1 7.108066,98.458198 0.285161,0.288549 0 0 1 7.0929444,98.329197 L 7.09,94.67 A 0.347226,0.35135 -180 0 0 6.487807,94.445949 L 5,95.95 2.12,98.9 0.09,100.95 a 0.317032,0.320798 -180 0 0 0,0.44979 L 6.43,107.82 a 0.379097,0.3836 -180 0 0 0.665938,-0.32249 L 7.09,103.68 a 0.317032,0.320798 0 0 1 0.317033,-0.3208 L 15.65,103.36 a 13.6894,13.852 -180 0 0 -1.39,-4.71 z"
   class="st7"
   id="path76"
   inkscape:connector-curvature="0"
   style="fill:#e62323;stroke:none;stroke-width:16.88559914;stroke-linecap:butt" />
				</g>
				<g
   id="shape8104-27"
   transform="translate(28.4225,-3.54915)">
					<title
   id="title79">path42-1-7</title>
					<path
   d="m 8.59,103.78 v 3.81 a 0.377419,0.381903 -180 0 0 0.419354,0.32928 0.379097,0.3836 -180 0 0 0.181158,-0.073 L 15.53,101.44 a 0.348903,0.353048 -180 0 0 0,-0.48035 L 9.19,94.54 A 0.347226,0.35135 -180 0 0 8.654905,94.57397 0.347226,0.35135 -180 0 0 8.587809,94.764076 L 8.59,98.58 A 0.318709,0.322496 0 0 1 8.272964,98.933046 L 0,98.94 c 0.16,1.63 0.61,3.21 1.33,4.68 h 6.94 a 0.315355,0.319101 0 0 1 0.318714,0.15955 z"
   class="st8"
   id="path81"
   inkscape:connector-curvature="0"
   style="fill:#ffffff;stroke:none;stroke-width:16.88559914;stroke-linecap:butt" />
				</g>
			</g>
		</g>
	</g>
</svg>

<?xml version="1.0" encoding="UTF-8" standalone="no"?>
<!DOCTYPE svg PUBLIC "-//W3C//DTD SVG 1.1//EN" "http://www.w3.org/Graphics/SVG/1.1/DTD/svg11.dtd">
<!-- Generated by Microsoft Visio, SVG Export Azure Firewall Security Partner Provider.svg Page-1 -->
<svg xmlns="http://www.w3.org/2000/svg" xmlns:xlink="http://www.w3.org/1999/xlink" xmlns:ev="http://www.w3.org/2001/xml-events"
		width="1.44095in" height="1.49893in" viewBox="0 0 103.748 107.923" xml:space="preserve" color-interpolation-filters="sRGB"
		class="st9">
	<style type="text/css">
	<![CDATA[
		.st1 {fill:#e62323;stroke:none;stroke-linecap:butt;stroke-width:25.7179}
		.st2 {fill:#ff7381;stroke:none;stroke-linecap:butt;stroke-width:25.7179}
		.st3 {fill:#e62323;stroke:none;stroke-linecap:butt;stroke-width:27.6595}
		.st4 {fill:#821010;stroke:none;stroke-linecap:butt;stroke-width:25.7179}
		.st5 {fill:#e5e5e4;stroke:none;stroke-linecap:butt;stroke-width:17.3868}
		.st6 {fill:url(#grad0-24);stroke:none;stroke-linecap:butt;stroke-width:16.8856}
		.st7 {fill:#e62323;stroke:none;stroke-linecap:butt;stroke-width:16.8856}
		.st8 {fill:#ffffff;stroke:none;stroke-linecap:butt;stroke-width:16.8856}
		.st9 {fill:none;fill-rule:evenodd;font-size:12px;overflow:visible;stroke-linecap:square;stroke-miterlimit:3}
	]]>
	</style>

	<defs id="Patterns_And_Gradients">
		<linearGradient id="grad0-24" x1="0" y1="0" x2="1" y2="0" gradientTransform="rotate(-90 0.5 0.5)">
			<stop offset="0" stop-color="#b3b2b3" stop-opacity="1"/>
			<stop offset="0.38" stop-color="#b6b5b5" stop-opacity="1"/>
			<stop offset="0.61" stop-color="#bebdbe" stop-opacity="1"/>
			<stop offset="0.8" stop-color="#cccbcb" stop-opacity="1"/>
			<stop offset="0.96" stop-color="#e0e0df" stop-opacity="1"/>
			<stop offset="1" stop-color="#e5e5e4" stop-opacity="1"/>
		</linearGradient>
	</defs>
	<g>
		<title>Page-1</title>
		<g id="group7896-1" transform="translate(25.7179,-34.0157)">
			<title>Azure Firewall Security Partner Provider</title>
			<g id="group7897-2">
				<title>layer1</title>
				<g id="shape7898-3" transform="translate(3.03056,-39.0675)">
					<title>path10-7</title>
					<path d="M14.2 101.54 L0.06 101.54 L0 107.88 L14.43 107.92 L14.2 101.53 L14.2 101.54 Z" class="st1"/>
				</g>
				<g id="shape7899-5" transform="translate(19.1617,-38.8158)">
					<title>path12-3</title>
					<path d="M14.33 101.29 L0.19 101.29 L0 107.59 L14.52 107.92 L14.33 101.28 L14.33 101.29 Z" class="st2"/>
				</g>
				<g id="shape7900-7" transform="translate(3.08623,-31.4887)">
					<title>path14-3</title>
					<path d="M46.67 93.96 L32.53 93.96 L32.49 100.69 L47.48 100.58 L46.86 93.96 L46.67 93.96 ZM5.89 101.97 L0 101.97
								 L0 107.92 L5.89 107.92 L5.89 101.97 L5.89 101.97 Z" class="st1"/>
				</g>
				<g id="shape7901-9" transform="translate(11.0981,-31.4887)">
					<title>path16-9</title>
					<path d="M38.66 101.97 L32.77 101.97 L32.77 107.92 L38.66 107.92 L38.66 101.97 L38.66 101.97 ZM14.14 101.97 L0
								 101.97 L0 107.92 L14.14 107.92 L14.14 101.97 L14.14 101.97 Z" class="st2"/>
				</g>
				<g id="shape7902-11" transform="translate(2.83628,-23.2088)">
					<title>path18-1</title>
					<path d="M38.67 93.69 L24.53 93.69 L24.53 99.64 L40.18 99.78 L39.53 93.67 L38.67 93.69 ZM14.37 101.33 L0.21 101.35
								 L0 107.92 L14.47 107.88 L14.83 101.33 L14.37 101.33 Z" class="st1"/>
				</g>
				<g id="shape7903-13" transform="translate(19.0694,-23.1112)">
					<title>path20-0</title>
					<path d="M14.42 101.5 L0.13 101.27 L0 107.87 L14.66 107.92 L14.42 101.5 Z" class="st2"/>
				</g>
				<g id="shape7904-15" transform="translate(35.2115,-23.2082)">
					<title>path22-5</title>
					<rect x="0" y="101.346" width="14.8123" height="6.57722" class="st3"/>
				</g>
				<g id="shape7905-17" transform="translate(0,-20.6465)">
					<title>path8-5</title>
					<path d="M50.28 107.92 A1.98255 2.0061 -180 0 0 52.31 105.97 L52.31 82.34 A1.98255 2.0061 -180 0 0 50.28 80.38
								 L2.03 80.38 A1.97999 2.00351 -180 0 0 -0 82.34 L0 105.97 A1.97999 2.00351 -180 0 0 2.03 107.92 L50.28
								 107.92 L50.28 107.92 ZM49.76 97.08 L43.87 97.08 L43.87 91.12 L49.76 91.12 L49.76 97.08 L49.76 97.08
								 ZM35.81 83.11 L49.95 83.11 L49.95 89.27 L35.81 89.27 L35.81 83.11 L35.81 83.11 ZM41.69 91.12 L41.69
								 97.08 L27.36 97.08 L27.36 91.12 L41.69 91.12 L41.69 91.12 ZM19.35 83.11 L33.49 83.11 L33.49 89.27
								 L19.35 89.27 L19.35 83.11 ZM25.24 91.12 L25.24 97.08 L11.1 97.08 L11.1 91.12 L25.24 91.12 L25.24
								 91.12 ZM3.09 83.11 L17.23 83.11 L17.23 89.27 L3.09 89.27 L3.09 83.11 ZM3.09 91.12 L8.93 91.12 L8.93
								 97.08 L3.09 97.08 L3.09 91.12 L3.09 91.12 ZM17.23 105.14 L3.09 105.14 L3.09 99.03 L17.23 99.03 L17.23
								 105.14 ZM33.49 105.14 L19.35 105.14 L19.35 99.03 L33.49 99.03 L33.49 105.14 ZM35.61 105.14 L35.61
								 99.03 L49.76 99.03 L49.76 105.04 L35.61 105.14 Z" class="st4"/>
				</g>
				<g id="shape7906-19" transform="translate(28.5125,-0.305425)">
					<title>path1202-0</title>
					<ellipse cx="14.0902" cy="93.6656" rx="14.0902" ry="14.2576" class="st5"/>
				</g>
				<g id="shape7907-21" transform="translate(28.3033,2.41585E-13)">
					<title>path20-06-7</title>
					<path d="M28.35 91.86 L20.11 91.86 a0.317032 0.320798 -180 0 0 -0.318706 0.320797 L19.79 96 a0.380774 0.385297
								 0 0 1 -0.60052 0.254602 L12.86 89.84 a0.318709 0.322496 0 0 1 2.13163E-14 -0.448099 L14.89 87.34
								 L1.55 87.34 A13.624 13.7858 -180 0 0 0.02 93.75 A12.2368 12.3821 -180 0 0 0.02 95.29 L8.39 95.29
								 a0.317032 0.320798 -180 0 0 0.317036 -0.353052 L8.71 91.03 a0.348903 0.353048 0 0 1 0.60219 -0.224048
								 L15.64 97.21 a0.348903 0.353048 0 0 1 -4.9738E-14 0.482041 L9.31 104.11 a0.379097 0.3836 0 0 1 -0.603868
								 -0.257996 L8.7 100.23 a0.315355 0.319101 -180 0 0 -0.315358 -0.353052 L1.45 99.88 A14.0685 14.2356
								 -180 0 0 14.12 107.92 A14.1004 14.2679 -180 0 0 28.35 93.66 A13.9762 14.1423 -180 0 0 28.35 91.86
								 L28.35 91.86 Z" class="st6"/>
				</g>
				<g id="shape7908-25" transform="translate(41.0045,-11.4988)">
					<title>path40-7-8</title>
					<path d="M8.55 98.65 L7.41 98.65 a0.286839 0.290246 0 0 1 -0.301934 -0.191802 a0.285161 0.288549 0 0 1 -0.0151216
								 -0.129001 L7.09 94.67 a0.347226 0.35135 -180 0 0 -0.602193 -0.224051 L5 95.95 L2.12 98.9 L0.09 100.95
								 a0.317032 0.320798 -180 0 0 -5.55112E-15 0.449795 L6.43 107.82 a0.379097 0.3836 -180 0 0 0.665938
								 -0.322492 L7.09 103.68 a0.317032 0.320798 0 0 1 0.317033 -0.320797 L15.65 103.36 A13.6894 13.852
								 -180 0 0 14.26 98.65 L8.55 98.65 Z" class="st7"/>
				</g>
				<g id="shape7909-27" transform="translate(28.4225,-3.54915)">
					<title>path42-1-7</title>
					<path d="M8.59 103.78 L8.59 107.59 a0.377419 0.381903 -180 0 0 0.419354 0.329279 a0.379097 0.3836 -180 0 0 0.181158
								 -0.0729845 L15.53 101.44 a0.348903 0.353048 -180 0 0 7.10543E-15 -0.480346 L9.19 94.54 a0.347226
								 0.35135 -180 0 0 -0.535095 0.0339677 a0.347226 0.35135 -180 0 0 -0.0670956 0.190106 L8.59 98.58
								 a0.318709 0.322496 0 0 1 -0.317036 0.353046 L0 98.94 C0.16 100.57 0.61 102.15 1.33 103.62 L8.27
								 103.62 a0.315355 0.319101 0 0 1 0.318714 0.159552 L8.59 103.78 Z" class="st8"/>
				</g>
			</g>
		</g>
	</g>
</svg>
